X: 884
T: Boiled Goats' Milk
N:"Collected by Cronin"
B:O'Neill's 884
Z:Transcribed by Dan G. Petersen, dangp@post6.tele.dk
M:6/8
L:1/8
K:G
d/c/|BGA B2d|cAG A2B|cAF G2B|def gdc|
BGA B2d|cAG A2c|(B/c/d)B cAF|AGG G2:|
d|(g/f/e)g fdc|BAB dBG|gag fdc|BAB def|
(g/f/e)g fdc|BAB dBG|(B/c/d)B cAF|AGG G2:|


